X: 300
T:La borria del Becat
M:3/8
L:1/16
S:Lon Lemmet
R:Bourre
A:Auvergne
Z:Stoney
K:D
A2||: d2efg2|a2abag|a2 [A4e4]   |a3ba2|a2gagf|1edefe2  :||2e4   {g}f2||d
2efed|(3(cdc)[D4A4]   |[D3A3]Bc2|d2efed|cdefed|(3(cdc)[D4A4]   |[D3A3]Bc
2 |d2efec|"D.C"d4    ||
W:
W: From "Falaleiro" http://home.t-online.de/home/pheld/homepage.htm
